src/images/vector.svg

<svg width="12" height="22" viewBox="0 0 12 22" fill="none" xmlns="http://www.w3.org/2000/svg">
<path d="M0.759889 11.2716L0.759881 11.2716C0.723121 11.2365 0.693857 11.1944 0.673862 11.1477L0.214269 11.3447L0.673861 11.1477C0.653865 11.1011 0.643555 11.0508 0.643555 11.0001C0.643555 10.9493 0.653865 10.899 0.673861 10.8524L0.214269 10.6555L0.673862 10.8524C0.693857 10.8057 0.723122 10.7636 0.759881 10.7286L0.759889 10.7285L10.5126 1.43605L10.5127 1.43596C10.5825 1.36948 10.6751 1.33239 10.7715 1.33239C10.8663 1.33239 10.9575 1.36828 11.0268 1.43274L11.0322 1.43813L11.0321 1.43824L11.0414 1.44706C11.0713 1.47555 11.0952 1.50984 11.1116 1.54786C11.1279 1.58587 11.1363 1.62681 11.1363 1.66818C11.1363 1.70955 11.1279 1.75049 11.1116 1.7885C11.0952 1.82652 11.0713 1.86082 11.0414 1.88931L11.0409 1.88973L1.85691 10.6362L1.4768 10.9982L1.85683 11.3603L11.0408 20.1103L11.0414 20.1108C11.0713 20.1393 11.0952 20.1736 11.1116 20.2116C11.1279 20.2496 11.1363 20.2906 11.1363 20.3319C11.1363 20.3733 11.1279 20.4142 11.1116 20.4523C11.0952 20.4903 11.0713 20.5246 11.0414 20.5531L11.0412 20.5529L11.0322 20.562L11.0268 20.5674C10.9575 20.6318 10.8663 20.6677 10.7715 20.6677C10.6751 20.6677 10.5825 20.6306 10.5127 20.5642L10.5126 20.5641L0.759889 11.2716Z" fill="white" stroke="#2C2C2C"/>
</svg>

<svg width="12" height="22" fill="none" xmlns="http://www.w3.org/2000/svg"><path d="M.76 11.272a.376.376 0 0 1-.086-.124l-.46.197.46-.197a.375.375 0 0 1 0-.296l-.46-.197.46.197a.374.374 0 0 1 .086-.123l9.753-9.293a.375.375 0 0 1 .514-.003l.005.005.01.01a.307.307 0 0 1 .07.34.308.308 0 0 1-.07.101h-.001l-9.184 8.747-.38.362.38.362 9.184 8.75a.308.308 0 0 1 .07.342.308.308 0 0 1-.07.101l-.009.009-.005.005a.375.375 0 0 1-.514-.003L.76 11.272Z" fill="#fff" stroke="#2C2C2C"/></svg>
